common/src/main/resources/icons/codeStyle/AddNewSectionRule.svg

<svg xmlns="http://www.w3.org/2000/svg" width="16" height="16" fill="#82AAFF" data-big="true" viewBox="0 0 24 24"><path d="M8.5 7h2L16 21h-2.4l-1.1-3H6.3l-1.1 3H3zm-1.4 9h4.8L9.5 9.7zM22 5v2h-3v3h-2V7h-3V5h3V2h2v3z"/></svg>

<!--
  - The MIT License (MIT)
  -
  - Copyright (c) 2015-2024 Elior "Mallowigi" Boukhobza
  -
  - Permission is hereby granted, free of charge, to any person obtaining a copy
  - of this software and associated documentation files (the "Software"), to deal
  - in the Software without restriction, including without limitation the rights
  - to use, copy, modify, merge, publish, distribute, sublicense, and/or sell
  - copies of the Software, and to permit persons to whom the Software is
  - furnished to do so, subject to the following conditions:
  -
  - The above copyright notice and this permission notice shall be included in all
  - copies or substantial portions of the Software.
  -
  - THE SOFTWARE IS PROVIDED "AS IS", WITHOUT WARRANTY OF ANY KIND, EXPRESS OR
  - IMPLIED, INCLUDING BUT NOT LIMITED TO THE WARRANTIES OF MERCHANTABILITY,
  - FITNESS FOR A PARTICULAR PURPOSE AND NONINFRINGEMENT. IN NO EVENT SHALL THE
  - AUTHORS OR COPYRIGHT HOLDERS BE LIABLE FOR ANY CLAIM, DAMAGES OR OTHER
  - LIABILITY, WHETHER IN AN ACTION OF CONTRACT, TORT OR OTHERWISE, ARISING FROM,
  - OUT OF OR IN CONNECTION WITH THE SOFTWARE OR THE USE OR OTHER DEALINGS IN THE
  - SOFTWARE.
  -->


<svg data-big="true" xmlns="http://www.w3.org/2000/svg" version="1.1" width="16px" height="16px" fill="#82AAFF"
     viewBox="0 0 24 24">
  <path
    d="M8.5,7H10.5L16,21H13.6L12.5,18H6.3L5.2,21H3L8.5,7M7.1,16H11.9L9.5,9.7L7.1,16M22,5V7H19V10H17V7H14V5H17V2H19V5H22Z"/>
</svg>
